build/img/icons/location.svg

<svg xmlns="http://www.w3.org/2000/svg" width="16" height="24" viewBox="0 0 16 24" fill="none"> <path opacity="0.65" fill-rule="evenodd" clip-rule="evenodd" d="M8 0C12.4 0 16 3.58932 16 7.97626C16 11.3947 11.4857 19.3139 8.8 23.53C8.45714 24.1567 7.54286 24.1567 7.2 23.53C4.51429 19.3139 0 11.3947 0 7.97626C0 3.58932 3.6 0 8 0ZM8 3.98813C10.2286 3.98813 12 5.81128 12 7.97626C12 10.1982 10.2286 11.9644 8 11.9644C5.82857 11.9644 4 10.1982 4 7.97626C4 5.81128 5.82857 3.98813 8 3.98813Z" fill="#2C2C2C"/> </svg>

<svg xmlns="http://www.w3.org/2000/svg" width="16" height="24" fill="none"><path opacity=".65" fill-rule="evenodd" clip-rule="evenodd" d="M8 0c4.4 0 8 3.59 8 7.976 0 3.419-4.514 11.338-7.2 15.554a.916.916 0 01-1.6 0C4.514 19.314 0 11.395 0 7.976 0 3.59 3.6 0 8 0zm0 3.988c2.229 0 4 1.823 4 3.988a3.97 3.97 0 01-4 3.988c-2.171 0-4-1.766-4-3.988 0-2.165 1.829-3.988 4-3.988z" fill="#2C2C2C"/></svg>
